X:555
T:Knocknaboul polka 2
R:Polka
O:Ireland
B:Ceol Rince 3 n65
B:Irish Fiddle Book p144
B:Irish Traditional Music Session Tunes 3 n46
S:irishf~5.abc
Z:Transcription:?, minor arr., chords:Mike Long
M:2/4
L:1/8
K:G
"G"GB B/c/B/A/|GB B>G|"D"FA A/B/A/G/|FA D2|\
"G"GB B/c/B/A/|GB dg|"D"fd "C"cA|"G"G2 G2:|
|:"G"g2 g>f|ga ag|"D"fd de|fg af|\
"G"g2 g>f|g/a/b ag|"D"fd "C"cA|"G"G2 G2:|
|:"G"B2 B>c|dc AG|"D"F/G/F/E/ FD|FG AG|\
"G"B>A Bc|dc Ag|"D"f/e/d "C"cA|"G"G2 G2:|
